icons/law-24.svg

<svg xmlns="http://www.w3.org/2000/svg" width="24" height="24" viewBox="0 0 24 24"><path d="M12.75 2.75V4.5h1.975c.351 0 .694.106.984.303l1.697 1.154c.041.028.09.043.14.043h4.102a.75.75 0 010 1.5H20.07l3.366 7.68a.749.749 0 01-.23.896c-.1.074-.203.143-.31.206a6.296 6.296 0 01-.79.399 7.349 7.349 0 01-2.856.569 7.343 7.343 0 01-2.855-.568 6.205 6.205 0 01-.79-.4 3.205 3.205 0 01-.307-.202l-.005-.004a.749.749 0 01-.23-.896l3.368-7.68h-.886c-.351 0-.694-.106-.984-.303l-1.697-1.154a.246.246 0 00-.14-.043H12.75v14.5h4.487a.75.75 0 010 1.5H6.763a.75.75 0 010-1.5h4.487V6H9.275a.249.249 0 00-.14.043L7.439 7.197c-.29.197-.633.303-.984.303h-.886l3.368 7.68a.75.75 0 01-.209.878c-.08.065-.16.126-.31.223a6.077 6.077 0 01-.792.433 6.924 6.924 0 01-2.876.62 6.913 6.913 0 01-2.876-.62 6.077 6.077 0 01-.792-.433 3.483 3.483 0 01-.309-.221.762.762 0 01-.21-.88L3.93 7.5H2.353a.75.75 0 010-1.5h4.102c.05 0 .099-.015.141-.043l1.695-1.154c.29-.198.634-.303.985-.303h1.974V2.75a.75.75 0 011.5 0zM2.193 15.198a5.414 5.414 0 002.557.635 5.414 5.414 0 002.557-.635L4.75 9.368zm14.51-.024c.082.04.174.083.275.126.53.223 1.305.45 2.272.45a5.847 5.847 0 002.547-.576L19.25 9.367z"/></svg>

<svg xmlns="http://www.w3.org/2000/svg" width="24" height="24" viewBox="0 0 24 24">
  <defs/>
  <path d="M12.75,2.75 L12.75,4.5 L14.725,4.5 C15.076,4.5 15.419,4.606 15.709,4.803 L17.406,5.957 C17.447,5.985 17.496,6 17.546,6 L21.648,6 C22.062,6 22.398,6.336 22.398,6.75 C22.398,7.164 22.062,7.5 21.648,7.5 L20.07,7.5 L23.436,15.18 C23.575,15.496 23.48,15.866 23.206,16.076 C23.106,16.15 23.003,16.219 22.896,16.282 C22.71,16.394 22.444,16.538 22.106,16.681 C21.202,17.059 20.23,17.253 19.25,17.25 C18.27,17.253 17.299,17.06 16.395,16.682 C16.055,16.538 15.79,16.394 15.605,16.282 C15.498,16.219 15.394,16.151 15.295,16.076 C15.294,16.076 15.298,16.08 15.298,16.08 L15.293,16.076 C15.019,15.866 14.924,15.496 15.063,15.18 L18.431,7.5 L17.545,7.5 C17.194,7.5 16.851,7.394 16.561,7.197 L14.864,6.043 C14.824,6.015 14.774,6 14.724,6 L12.75,6 L12.75,20.5 L17.237,20.5 C17.651,20.5 17.987,20.836 17.987,21.25 C17.987,21.664 17.651,22 17.237,22 L6.763,22 C6.349,22 6.013,21.664 6.013,21.25 C6.013,20.836 6.349,20.5 6.763,20.5 L11.25,20.5 L11.25,6 L9.275,6 C9.225,6 9.176,6.015 9.135,6.043 L7.439,7.197 C7.149,7.394 6.806,7.5 6.455,7.5 L5.569,7.5 L8.937,15.18 C9.071,15.487 8.986,15.845 8.728,16.058 C8.648,16.123 8.568,16.184 8.418,16.281 C8.232,16.402 7.966,16.559 7.626,16.714 C6.723,17.124 5.742,17.336 4.75,17.334 C3.536,17.334 2.554,17.025 1.874,16.714 C1.534,16.559 1.268,16.402 1.082,16.281 C0.934,16.185 0.853,16.124 0.773,16.06 C0.518,15.844 0.432,15.488 0.563,15.18 L3.93,7.5 L2.353,7.5 C1.939,7.5 1.603,7.164 1.603,6.75 C1.603,6.336 1.939,6 2.353,6 L6.455,6 C6.505,6 6.554,5.985 6.596,5.957 L8.291,4.803 C8.581,4.605 8.925,4.5 9.276,4.5 L11.25,4.5 L11.25,2.75 C11.25,2.336 11.586,2 12,2 C12.414,2 12.75,2.336 12.75,2.75 Z M2.193,15.198 C2.98,15.617 3.858,15.835 4.75,15.833 C5.642,15.835 6.52,15.617 7.307,15.198 L4.75,9.368 Z M16.703,15.174 C16.785,15.214 16.877,15.257 16.978,15.3 C17.508,15.523 18.283,15.75 19.25,15.75 C20.132,15.752 21.002,15.556 21.797,15.174 L19.25,9.367 Z"/>
</svg>
